X:45
T:Doodely Doodely Dank
R:slip jig
H:Played by Con Cassidy. Related to #84
D:Paul O'Shaughnessy & Paul McGrattan: Within a Mile from Dublin
Z:id:hn-slipjig-45
M:9/8
K:G
B/c/dB BAB g2A|BcB B2c dBG|B/c/dB BAB g2g|faf ege dBA:|
|:fdd def g2e|fdd dgf e^cA|fdd def g2e|fed efe efg:|
<end>
<start>
